!!!OTL: Duikou shange
!!!ARE: Asia, China,ˇAnhui, Guichi
!! III, 581
!!!SCT: C1609
!!!YEM: Copyright 1995, estate of Helmut Schaffrath.
**kern
*ICvox
*Ivox
*M2/4
*k[f#c#g#d#]
*E:
{16cc#
16ee
16cc#
16b
8g#
16g#
16b
=1
8cc#
16b
16g#
4f#
=2
8b
16b
16g#
8g#
8b
=3
8b
16g#
16f#
4e
=4
4.e
8r}
=5
{8e
16e
16f#
8g#
16g#
16f#
=6
16g#
16f#
8e
8f#
16e
16f#
=7
8b
16b
16g#
8b
8f#
=8
8b
16g#
16f#
4e
=9
4.e
8r}
=10
{8b
16b
16g#
8.e
16f#
=11
8b
16b
16g#
8b
8f#
=12
8f#
16g#
16f#
4e
=13
2e}
==
!!!AGN: Shange. NannÅ qing
!!!AMT: simple duple
!!!AIN: vox
!!!EED: Helmut Schaffrath
!!!EEV: 1.0
*-
